X:1
T:Title
%%score { 1 | 2 }
L:1/8
Q:1/4=78
M:6/8
K:Bb
V:1 treble nm="Grand Piano"
V:2 bass 
V:1
 [DF]>[EG][DF] [B,D][DF][DB] | [DB]AB C3 | E>FE CEG | AAG [DF]3 | [DF]>[EG][DF] [B,D][DF][DB] | %5
w: D.~B.~Towner * * * * *|||||
 [DB][FB]c d3 | c>BG FBc | [DB]6 | c>cc cAF | [DF][FB]c d3 | d>cB BAG | [=EG][Ec][Ed] c3 | %12
w: |||||||
 d>cB BAG | [DF][FB]c d3 | c>BG FBc | [DB]6 |] %16
w: ||||
V:2
 [B,,B,]>[B,,B,][B,,B,] [B,,F,][B,,F,][B,,F,] | [B,,F,][C,F,C][D,F,B,] [E,G,]3 | %2
 [F,A,C]>[F,A,C][F,A,C] [F,A,][F,A,C][F,CE] | [F,CE][F,CE][F,A,E] [B,,B,]3 | %4
 [B,,B,]>[B,,B,][B,,B,] [B,,F,][B,,F,][B,,F,] | [B,,F,][D,B,][K:treble][F,A,F] [B,F]3 | %6
 [E,G,E]>[E,G,E][E,B,E] [F,B,D][F,D][F,E] | [B,,F,]6 | [F,A,F]>[F,A,F][F,A,F] [F,A,E][F,CE][F,CE] | %9
 [B,,B,][D,B,][K:treble][F,A,F] [B,F]3 | [B,F]>[B,E][B,D][K:bass] [E,G,E][E,A,E][E,B,E] | %11
 [C,C][C,G,][C,B,][K:treble] [F,A,F]3 | [B,F]>[K:bass][B,E][B,D] [E,G,E][E,A,E][E,B,E] | %13
 [B,,B,][D,B,][K:treble][F,A,F] [B,F]3 | [E,G,E]>[E,G,E][E,B,E] [F,B,D][F,D][F,E] | [B,,F,]6 |] %16

